svgs/sharp-light/gingerbread-man.svg

<svg xmlns="http://www.w3.org/2000/svg" viewBox="0 0 448 512"><!--! Font Awesome Pro 6.6.0 by @fontawesome - https://fontawesome.com License - https://fontawesome.com/license (Commercial License) Copyright 2024 Fonticons, Inc. --><path d="M224 0C162.1 0 112 50.1 112 112c0 17.2 3.9 33.4 10.8 48L80 160l-64 0L0 160l0 16L0 304l0 16 16 0 64 0 21.2 0L35.7 398.6 32 403l0 5.8L32 496l0 16 16 0 94 0 7.5 0 4.8-5.8L216.1 432l15.7 0 61.9 74.2 4.8 5.8 7.5 0 94 0 16 0 0-16 0-87.2 0-5.8-3.7-4.5L346.8 320l21.2 0 64 0 16 0 0-16 0-128 0-16-16 0-64 0-42.8 0c6.9-14.6 10.8-30.8 10.8-48C336 50.1 285.9 0 224 0zM144 112c0-44.2 35.8-80 80-80s80 35.8 80 80c0 20.5-7.7 39.2-20.4 53.3L259.8 192l35.8 0 72.4 0 48 0 0 96-48 0-48 0-16 0 0 16 0 8.8 0 5.8 3.7 4.4L384 414.6l0 65.4-70.5 0-61.9-74.2-4.8-5.8-7.5 0-30.7 0-7.5 0-4.8 5.8L134.5 480 64 480l0-65.4 76.3-91.6 3.7-4.4 0-5.8 0-8.8 0-16-16 0-48 0-48 0 0-96 48 0 72.4 0 35.8 0-23.9-26.7C151.7 151.2 144 132.5 144 112zm80 128a16 16 0 1 0 0-32 16 16 0 1 0 0 32zM208 96a16 16 0 1 0 -32 0 16 16 0 1 0 32 0zm48 16a16 16 0 1 0 0-32 16 16 0 1 0 0 32zM240 352a16 16 0 1 0 -32 0 16 16 0 1 0 32 0zm-16-48a16 16 0 1 0 0-32 16 16 0 1 0 0 32z"/></svg>

<svg xmlns="http://www.w3.org/2000/svg" viewBox="0 0 448 512"><!--! Font Awesome Pro 6.5.2 by @fontawesome - https://fontawesome.com License - https://fontawesome.com/license (Commercial License) Copyright 2024 Fonticons, Inc. --><path d="M224 0C162.1 0 112 50.1 112 112c0 17.2 3.9 33.4 10.8 48H80 16 0v16V304v16H16 80h21.2L35.7 398.6 32 403v5.8V496v16H48h94 7.5l4.8-5.8L216.1 432h15.7l61.9 74.2 4.8 5.8H306h94 16V496 408.8 403l-3.7-4.5L346.8 320H368h64 16V304 176 160H432 368 325.2c6.9-14.6 10.8-30.8 10.8-48C336 50.1 285.9 0 224 0zM144 112c0-44.2 35.8-80 80-80s80 35.8 80 80c0 20.5-7.7 39.2-20.4 53.3L259.8 192h35.8H368h48v96H368 320 304v16 8.8 5.8l3.7 4.4L384 414.6V480H313.5l-61.9-74.2-4.8-5.8h-7.5H208.6h-7.5l-4.8 5.8L134.5 480H64V414.6l76.3-91.6 3.7-4.4v-5.8V304 288H128 80 32V192H80h72.4 35.8l-23.9-26.7C151.7 151.2 144 132.5 144 112zm80 128a16 16 0 1 0 0-32 16 16 0 1 0 0 32zM208 96a16 16 0 1 0 -32 0 16 16 0 1 0 32 0zm48 16a16 16 0 1 0 0-32 16 16 0 1 0 0 32zM240 352a16 16 0 1 0 -32 0 16 16 0 1 0 32 0zm-16-48a16 16 0 1 0 0-32 16 16 0 1 0 0 32z"/></svg>
